16x16/apps/dk.tangramgames.mrrescue.svg

<svg height="16" width="16" xmlns="http://www.w3.org/2000/svg"><path d="m5.468 10.2h4.804l1.728 2h-8z" fill="#f4f4f7"/><path d="m9.616 11.744-1.036-.496s-.604.053-.9.04c-.275-.224-.353-.302-.68-.422-2.9.895-4.97 2.59-7 4.134h9.21l.002-2.214.43-.305z" fill="#d59f5b"/><path d="m6.5 12.064 1.144-.816s.604.053.9.04c.275-.224.353-.302.679-.422 2.901.895 4.746 2.59 6.777 4.134h-9v-1.695l-.5-.304z" fill="#febd6a"/><path d="m5.143 3 2.774-.88 2.568.88 1.643 2 .41 2.561c.037 2.141-2.759 3.71-4.604 3.759-1.524.004-3.05-1.203-3.72-2.024-.73-.779-.66-1.128-.675-2.128l.371-2.568z" fill="#17191e"/><path d="m5 6.017 1.065-1.017h.538l.397.837v1.133l-1.327.83-.673-.4z" fill="#bddff5"/><path d="m4.9 11.709a16.4 16.4 0 0 0 -.97.522l-.48 2.769h.88zm6.088-.149 1.217 3.44h.92l-1.002-2.829c-.361-.216-.739-.42-1.135-.61z" fill="#17191e"/><circle cx="7.5" cy="12.5" fill="#ec503a" r=".5"/><path d="m3.883 4.12c.513-1.25 2.183-2.398 3.42-3.08l.4-1.04h.825l.462.964c1.24.703 2.712 1.997 3.231 3.148.45.996.974 1.755.706 2.806l-.225.882c-.238-.275-.384-.822-.52-1.578-.342-2.203-2.157-3.246-4.004-3.222-2.095.155-3.383 1.307-4.18 3.063-.174.394-.29.82-.47 1.447l-.283-.374c-.704-.826.3-2.116.638-3.015z" fill="#ed5e4a"/><path d="m11 6.017-1.065-1.017h-.538l-.397.837v1.133l1.327.83.673-.4zm-4 1.983-1 .93v2.012l1 1.058h2l1-1.058v-2.012l-1-.93h-1zm.393 1h1.214l.393.365v1.18l-.43.455h-1.14l-.43-.455v-1.18z" fill="#bddff5"/></svg>

<svg height="16" width="16" xmlns="http://www.w3.org/2000/svg">
    <path d="M5.468 10.2h4.804l1.728 2H4z" fill="#f4f4f7"/>
    <path d="m9.616 11.744-1.036-.496s-.604.053-.9.04c-.275-.224-.353-.302-.68-.422-2.9.895-4.97 2.59-7 4.134h9.21l.002-2.214.43-.305z" fill="#d59f5b"/>
    <path d="m6.5 12.064 1.144-.816s.604.053.9.04c.275-.224.353-.302.679-.422 2.901.895 4.746 2.59 6.777 4.134H7v-1.695l-.5-.304z" fill="#febd6a"/>
    <path d="m5.143 3 2.774-.88 2.568.88 1.643 2 .41 2.561c.037 2.141-2.759 3.71-4.604 3.759-1.524.004-3.05-1.203-3.72-2.024-.73-.779-.66-1.128-.675-2.128L3.91 4.6z" fill="#17191e"/>
    <path d="M5 6.017 6.065 5h.538L7 5.837V6.97l-1.327.83L5 7.4z" fill="#bddff5"/>
    <path d="M4.9 11.709a16.4 16.4 0 0 0-.97.522L3.45 15h.88zm6.088-.149L12.205 15h.92l-1.002-2.829c-.361-.216-.739-.42-1.135-.61z" fill="#17191e"/>
    <circle cx="7.5" cy="12.5" fill="#ec503a" r=".5"/>
    <path d="M3.883 4.12c.513-1.25 2.183-2.398 3.42-3.08l.4-1.04h.825l.462.964c1.24.703 2.712 1.997 3.231 3.148.45.996.974 1.755.706 2.806l-.225.882c-.238-.275-.384-.822-.52-1.578C11.84 4.019 10.025 2.976 8.178 3c-2.095.155-3.383 1.307-4.18 3.063-.174.394-.29.82-.47 1.447l-.283-.374c-.704-.826.3-2.116.638-3.015z" fill="#ed5e4a"/>
    <path d="M11 6.017 9.935 5h-.538L9 5.837V6.97l1.327.83.673-.4zM7 8l-1 .93v2.012L7 12h2l1-1.058V8.93L9 8H8zm.393 1h1.214L9 9.365v1.18L8.57 11H7.43L7 10.545v-1.18z" fill="#bddff5"/>
</svg>
